X: 1
T: Mountain House Waltz
C: Jay Ungar
S: Fiddle Hell Online 2022-4-7 handout for Jay & Molly Ungar's chord workshop
N: Based on a transcription by robin.beech@mcgill.ca, plus Molly's chords.
Z: 2022 John Chambers <jc:trillian.mit.edu>
R: waltz
P: With grace and romance
M: 3/4
L: 1/8
K: A
"^A"|: (3EFG |\
"A"A2 c3 f | "A7/C#"e2 c2 A2 | "D"F2 A3 d | "A"c2 A2 E2 |\
"D"D2 F2 A2 | "A/C#"C2 E2 A2 | "B7"B2 F2 A | "E7"G2 A2 B2 |
"A"A2 c3 f | "A7/C#"e2 c2 A2 | "D"F2 A3 d | "A"c2 A2 E2 |\
"Bm"D2 F2 A2 | "E7"E2 c2 B2 | "A"A4- (3AGF | "E7"E4 :|
"^B"|: (3efg |\
"A"a3 cea | "C#m"g3 ceg | "D"f3 Adf | "A"e2 c2 A2 |\
"D"d2 FAd | "A/C#"c2 A2 E2 | "Bm7"F6 | "E7"G4 (3efg |
"A"a3 cea | "C#m"g3 e2 c2 | "D"f2 d3 A | "A"e2 c2 A2 |\
"Bm7"F2 A2 d2 | "E7"c2 E2 B2 | "A"A4- [1 (3AGF |"E7"E4 :|2 AB | "A"A4 :|
